X: 3207
T: Beeswing
R: reel
M: 4/4
K: Dmajor
A|:d2dB AFDF|GBAF GEEA|d2dB AFDA|1 GBAF D2DA:|2 GBAF D2g2||
fdaf gebg|fdec dcBA|fdaf gebg|fdec d2dg|
fdaf gbeg|fdec dcBA|FAdc Bdea|fdec d2 d2||

